source/img/icon-instagram.svg

<svg width="18" height="18" viewBox="0 0 18 18" fill="none" xmlns="http://www.w3.org/2000/svg">
<path d="M5.20991 0C2.3366 0 0 2.34361 0 5.22393V12.7774C0 15.6577 2.3366 18 5.20991 18H12.7901C15.6634 18 18 15.6577 18 12.7774V5.22393C18 2.34361 15.6634 0 12.7901 0H5.20991ZM5.20991 1.54741H12.7901C14.835 1.54741 16.4577 3.17398 16.4577 5.22393V12.7774C16.4577 14.8273 14.835 16.4526 12.7901 16.4526H5.20991C3.16493 16.4526 1.54362 14.8273 1.54362 12.7774V5.22393C1.54362 3.17398 3.16493 1.54741 5.20991 1.54741ZM13.8308 3.0948C13.2345 3.0948 12.7514 3.57909 12.7514 4.17682C12.7514 4.77457 13.2345 5.25884 13.8308 5.25884C14.4271 5.25884 14.9102 4.77457 14.9102 4.17682C14.9102 3.57909 14.4271 3.0948 13.8308 3.0948ZM9 4.36555C6.45569 4.36555 4.37685 6.44948 4.37685 9C4.37685 11.5505 6.45569 13.6344 9 13.6344C11.5443 13.6344 13.6244 11.5505 13.6244 9C13.6244 6.44948 11.5443 4.36555 9 4.36555ZM9 5.91296C10.7102 5.91296 12.0808 7.28561 12.0808 9C12.0808 10.7144 10.7102 12.087 9 12.087C7.28978 12.087 5.92047 10.7144 5.92047 9C5.92047 7.28561 7.28978 5.91296 9 5.91296Z" fill="#5C5C50"/>
</svg>

<svg width="18" height="18" fill="none" xmlns="http://www.w3.org/2000/svg"><path d="M5.21 0C2.337 0 0 2.344 0 5.224v7.553C0 15.657 2.337 18 5.21 18h7.58c2.873 0 5.21-2.342 5.21-5.223V5.224C18 2.344 15.663 0 12.79 0H5.21zm0 1.547h7.58a3.648 3.648 0 013.668 3.677v7.553a3.646 3.646 0 01-3.668 3.676H5.21a3.645 3.645 0 01-3.666-3.676V5.224A3.646 3.646 0 015.21 1.547zm8.62 1.548a1.08 1.08 0 00-1.079 1.082 1.08 1.08 0 102.16 0 1.08 1.08 0 00-1.08-1.082zM9 4.365C6.456 4.366 4.377 6.45 4.377 9S6.456 13.634 9 13.634 13.624 11.55 13.624 9c0-2.55-2.08-4.634-4.624-4.634zm0 1.548c1.71 0 3.08 1.373 3.08 3.087A3.072 3.072 0 019 12.087 3.071 3.071 0 015.92 9 3.071 3.071 0 019 5.913z" fill="#5C5C50"/></svg>
